X: 27
T:Mississipi Sawyer
% Nottingham Music Database
S:Trad, via EF
M:4/4
L:1/4
K:D
P:A
[f/2a/2][g/2b/2]|"D"[ad'][a/2d'/2][f/2a/2] [ad'][a/2d'/2][f/2a/2]|"D"[ad'][a/2d'/2][f/2a/2] [a/2d'/2][b/2d'/2][a/2d'/2][f/2a/2]|"A7"[ga][g/2a/2][e/2g/2] [ga][g/2a/2][e/2g/2]|\
"A7"[ga][g/2a/2][e/2g/2] [a/2c'/2][g/2a/2][f/2a/2][e/2g/2]|
"D"[fa][f/2a/2][a/2d'/2] [fa][f/2a/2][e/2g/2]|"D"[d/2f/2][e/2g/2][f/2a/2][g/2b/2] [ad'][f/2a/2][g/2b/2]|"A7"[ac'][a/2c'/2][f/2a/2] [e/2g/2][g/2a/2][f/2a/2][e/2g/2]|"D"[d2f2] [df]:|
P:B
(3[A/2d/2][B/2d/2][c/2e/2]|"D"[df][f/2a/2][e/2g/2] [df][f/2a/2][e/2g/2]|"D"[d/2f/2][e/2g/2][f/2a/2][g/2b/2] [a2d'2]|"A7"[Ac][c/2e/2][B/2d/2] [Ac][c/2e/2][B/2d/2]|\
"A7"[A/2c/2][B/2d/2][c/2e/2][d/2f/2] [e/2g/2][g/2a/2][f/2a/2][e/2g/2]|
"D"[df][f/2a/2][e/2g/2] [df][f/2a/2][e/2g/2]|"D"[d/2f/2][e/2g/2][f/2a/2][g/2b/2] [ad'][f/2a/2][g/2b/2]|"A7"[a/2c'/2][b/2d'/2][a/2c'/2][g/2a/2] [f/2a/2][e/2g/2][d/2f/2][f/2a/2]|\
"A7"[e/2g/2][d/2f/2][e/2g/2][f/2a/2] "D"[df]:|


